assets/img/visual-studio-code.svg

<svg height="48.464" viewBox="0 0 48.237 48.464" width="48.237" xmlns="http://www.w3.org/2000/svg"><path d="m17.172 29.664-11.957 9.317-5.215-2.597v-24.284l5.195-2.617 11.874 9.338 18.8-18.821 12.368 4.927v38.528l-12.306 5.009zm18.328 3.278v-17.419l-11.255 8.72zm-29.872-3.134 5.916-5.38-5.916-5.9z" fill="#0179cb"/></svg>

<svg xmlns="http://www.w3.org/2000/svg" width="48.237" height="48.464" viewBox="0 0 48.237 48.464"><path fill="#0179cb" d="M17.172,29.664,5.215,38.981,0,36.384V12.1L5.195,9.483l11.874,9.338L35.869,0,48.237,4.927V43.455L35.931,48.464ZM35.5,32.942V15.523l-11.255,8.72ZM5.628,29.808l5.916-5.38-5.916-5.9Z" data-name="visual studio code"/></svg>
